X:237
T:Turkish Delight
M:6/8
C:Trad. & © Paul Gitlitz 2009
O:Turkey
K:Dm
"Dm"d2^c "Bb"d2f|"Gdim"e2g "F"fa2|"Gm"gfe "Dm"fed |"A"^cde "A/E"cBA|!
"Dm"d2^c "Bb"d2f|"Gdim"e2g "F"fa2|"Gm"gfe "Dm"fed |"A"^cde "A/E""Dm"d3|!
"Dm"D2^C "Bb"D2F|"Gdim"E2G "F"FA2|"Gm"GFE "Dm"FED |"A"^CDE "A/E"CB,A,|!
"Dm"D2^C "Bb"D2F|"Gdim"E2G "F"FA2|"Gm"GFE "Dm"FED |"A"^CDE "Dm"D3|!
|:"F"fef "Dm"d2d|"Edim"ede "Bb"B3|"Gdim"^GAB "F"AGE|"E"^GEG "A7"A3|!
"F"fef "Dm"d2d|"Edim"ede "Bb"B3|"Dm"DEF "Bb"^GAB |"A"AFE"Dm"D3:|!
|:"Dm"ADA "Bb"BDB|"Dm"ADA "Bb7/G#"^G3|"Dm"^GAB "Em"^cde|"F"fed "Am"A3|!
"Dm"ADA "Bb"BDB|"Dm"ADA "Bb7/G#"^G3|"Dm"DEF "C#m"^GAB|1"A"AFE "Dm"D3:|2"A"^cde "Dm"d3|]
